icons/chevron-left.svg

<svg xmlns="http://www.w3.org/2000/svg" width="24" height="24" viewBox="0 0 24 24">
  <path d="M14.2928932,5.29289322 C14.6834175,4.90236893 15.3165825,4.90236893 15.7071068,5.29289322 C16.0675907,5.65337718 16.0953203,6.22060824 15.7902954,6.61289944 L15.7071068,6.70710678 L10.415,12 L15.7071068,17.2928932 C16.0675907,17.6533772 16.0953203,18.2206082 15.7902954,18.6128994 L15.7071068,18.7071068 C15.3466228,19.0675907 14.7793918,19.0953203 14.3871006,18.7902954 L14.2928932,18.7071068 L8.29289322,12.7071068 C7.93240926,12.3466228 7.90467972,11.7793918 8.20970461,11.3871006 L8.29289322,11.2928932 L14.2928932,5.29289322 Z"/>
</svg>

<svg xmlns="http://www.w3.org/2000/svg" viewBox="0 0 24 24">
  <path d="M14.3 5.3a1 1 0 0 1 1.49 1.31l-.08.1L10.4 12l5.3 5.3a1 1 0 0 1 .08 1.31l-.08.1a1 1 0 0 1-1.32.08l-.1-.08-6-6a1 1 0 0 1-.08-1.32l.08-.1 6-6z"/>
</svg>
